img/sunlies.svg

<svg width="416" height="93" viewBox="0 0 416 93" fill="none" xmlns="http://www.w3.org/2000/svg">
<path d="M4.5465 47.608C4.5465 55.16 19.1385 56.312 33.6025 57.336C54.4665 58.744 64.9625 61.432 64.9625 72.44C64.9625 83.192 54.5945 92.28 34.6265 92.28C14.7865 92.28 1.8585 79.096 0.9625 65.016H2.6265C4.9305 73.72 14.0185 79.48 34.6265 79.48C46.4025 79.48 62.1465 78.072 62.1465 70.648C62.1465 63.608 51.7785 60.536 33.6025 59.64C18.6265 58.872 1.7305 57.848 1.7305 45.944C1.7305 35.192 15.4265 25.72 32.5785 25.72C49.9865 25.72 61.7625 35.704 63.6825 49.4H61.7625C59.2025 41.464 45.2505 38.52 32.5785 38.52C21.5705 38.52 4.5465 40.184 4.5465 47.608ZM139.153 27V91H136.593V72.568H135.952C131.089 86.136 120.337 92.28 109.073 92.28C94.9925 92.28 78.9925 86.136 78.9925 60.408V27H81.4245V60.408C81.4245 77.944 100.625 79.48 109.073 79.48C117.521 79.48 136.593 77.944 136.593 60.408V27H139.153ZM136.593 70.648V70.52V70.648ZM187.103 25.72C201.183 25.72 217.183 31.864 217.183 57.592V91H214.751V57.592C214.751 40.056 195.551 38.52 187.103 38.52C178.655 38.52 159.583 40.056 159.583 57.592V91H157.023V27H159.583V45.432H160.223C165.087 31.864 175.839 25.72 187.103 25.72ZM159.583 47.352V47.48V47.352ZM233.773 1.39999H236.333V91H233.773V1.39999ZM249.153 0.119995H264.513V15.48H249.153V0.119995ZM255.553 27H258.113V91H255.553V27ZM306.713 79.48C325.273 79.48 335.257 74.872 337.561 64.888H339.609C337.049 80.632 324.249 92.28 306.713 92.28C287.385 92.28 273.433 77.816 273.433 59.256C273.433 40.44 287.385 25.72 306.713 25.72C325.529 25.72 338.585 39.288 339.609 57.08H275.865C275.737 57.848 275.737 58.488 275.737 59.256C275.737 73.08 285.208 79.48 306.713 79.48ZM306.713 37.88C287.641 37.88 277.913 43.512 276.121 54.776H337.433C335.641 43.512 326.041 37.88 306.713 37.88ZM354.672 47.608C354.672 55.16 369.264 56.312 383.728 57.336C404.592 58.744 415.088 61.432 415.088 72.44C415.088 83.192 404.72 92.28 384.752 92.28C364.912 92.28 351.984 79.096 351.088 65.016H352.752C355.056 73.72 364.144 79.48 384.752 79.48C396.528 79.48 412.271 78.072 412.271 70.648C412.271 63.608 401.904 60.536 383.728 59.64C368.752 58.872 351.856 57.848 351.856 45.944C351.856 35.192 365.552 25.72 382.704 25.72C400.112 25.72 411.888 35.704 413.808 49.4H411.888C409.327 41.464 395.376 38.52 382.704 38.52C371.696 38.52 354.672 40.184 354.672 47.608Z" fill="#6CFFA9"/>
</svg>

<svg fill="none" height="93" viewBox="0 0 416 93" width="416" xmlns="http://www.w3.org/2000/svg"><path d="m4.5465 47.608c0 7.552 14.592 8.704 29.056 9.728 20.864 1.408 31.36 4.096 31.36 15.104 0 10.752-10.368 19.84-30.336 19.84-19.84 0-32.768-13.184-33.664-27.264h1.664c2.304 8.704 11.392 14.464 32 14.464 11.776 0 27.52-1.408 27.52-8.832 0-7.04-10.368-10.112-28.544-11.008-14.976-.768-31.872-1.792-31.872-13.696 0-10.752 13.696-20.224 30.848-20.224 17.408 0 29.184 9.984 31.104 23.68h-1.92c-2.56-7.936-16.512-10.88-29.184-10.88-11.008 0-28.032 1.664-28.032 9.088zm134.6065-20.608v64h-2.56v-18.432h-.641c-4.863 13.568-15.615 19.712-26.879 19.712-14.0805 0-30.0805-6.144-30.0805-31.872v-33.408h2.432v33.408c0 17.536 19.2005 19.072 27.6485 19.072s27.52-1.536 27.52-19.072v-33.408zm-2.56 43.648v-.128zm50.51-44.928c14.08 0 30.08 6.144 30.08 31.872v33.408h-2.432v-33.408c0-17.536-19.2-19.072-27.648-19.072s-27.52 1.536-27.52 19.072v33.408h-2.56v-64h2.56v18.432h.64c4.864-13.568 15.616-19.712 26.88-19.712zm-27.52 21.632v.128zm74.19-45.95201h2.56v89.60001h-2.56zm15.38-1.279995h15.36v15.360005h-15.36zm6.4 26.880005h2.56v64h-2.56zm51.16 52.48c18.56 0 28.544-4.608 30.848-14.592h2.048c-2.56 15.744-15.36 27.392-32.896 27.392-19.328 0-33.28-14.464-33.28-33.024 0-18.816 13.952-33.536 33.28-33.536 18.816 0 31.872 13.568 32.896 31.36h-63.744c-.128.768-.128 1.408-.128 2.176 0 13.824 9.471 20.224 30.976 20.224zm0-41.6c-19.072 0-28.8 5.632-30.592 16.896h61.312c-1.792-11.264-11.392-16.896-30.72-16.896zm47.959 9.728c0 7.552 14.592 8.704 29.056 9.728 20.864 1.408 31.36 4.096 31.36 15.104 0 10.752-10.368 19.84-30.336 19.84-19.84 0-32.768-13.184-33.664-27.264h1.664c2.304 8.704 11.392 14.464 32 14.464 11.776 0 27.519-1.408 27.519-8.832 0-7.04-10.367-10.112-28.543-11.008-14.976-.768-31.872-1.792-31.872-13.696 0-10.752 13.696-20.224 30.848-20.224 17.408 0 29.184 9.984 31.104 23.68h-1.92c-2.561-7.936-16.512-10.88-29.184-10.88-11.008 0-28.032 1.664-28.032 9.088z" fill="#6cffa9"/></svg>
